X:1
T:Light Of The Seven
T: A Lannister Always Pays His Debts
T: Game Of Thrones OST Season 3 
T: Composed by Ramin Djawadi Arrangement by Nicolas Del Gallo & Matthieu Bennett Full playthrough and more at https://www.youtube.com/c/NDGmusic If you want to donate, please check out my Patreon ☺ https://www.patreon.com/ndg 
C:Ramin Djawadi
%%score 1 { 2 | 3 }
L:1/8
Q:1/8=172
M:4/4
K:F
V:1 treble nm="Violin" snm="Vln."
V:2 treble nm="Piano" snm="Pno."
V:3 bass 
V:1
 z8 | z8 | z8 | z8 | z8 | z8 | z8 | z8 | z8 | z4 z2 z vA, |"^A"[Q:1/4=86] (F3 A,) (E3 A,) | %11
 F2 G2 (E3 A,) | G2 F2 E2 D2 | (E7 C) | (A3 C) (G3 C) | A2 B2 (G3 C) | vB2 A2 G2 F2 | %17
 F4 (E3 !>!A,) | EF D2- D2 F2 | FE A,2- A,2 A,2 | EF D2- D2 F2 | FE E2- E2 A,2 | EF D2- D2 A2 | %23
 A2 G2 D2 G2 |[M:6/4] !>!vF z !>!vE z !>!vD z z6 |[M:4/4]"^B" !>!vEF [A,D]4 F2 | %26
 ([A,-F]E A,4) A,2 | vEF D4 F2 | ([A,F]E [CE]4) A,2 | v[B,E]F D4 A2 | A2 G2 D2 G2 | (F3 D) AGEF | %32
 (D7 A,) | %33
"^C"!mp! [A,D][A,D]/[A,D]/ [A,D]/[A,D]/!>![A,D] !>![A,D][A,D]/[A,D]/ [A,D]/[A,D]/!>![A,D] | %34
 [A,D][A,D]/[A,D]/ [A,D]/[A,D]/!>![A,D] !>![A,D][A,D]/[A,D]/ [A,D]/[A,D]/!>![A,D] | %35
 [A,D][A,D]/[A,D]/ [A,D]/[A,D]/!>![A,D] !>![A,D][A,D]/[A,D]/ [A,D]/[A,D]/!>![A,D] | %36
 [A,D][A,D]/[A,D]/ [A,D]/[A,D]/!>![A,D] !>![A,D][A,D]/[A,D]/ [A,D]/[A,D]/!>![A,D] | %37
 [A,E][A,E]/[A,E]/ [A,E]/[A,E]/!>![A,E] !>![A,E][A,E]/[A,E]/ [A,E]/[A,E]/!>![A,E] | %38
 [A,E][A,E]/[A,E]/ [A,E]/[A,E]/!>![A,E] !>![A,E][A,E]/[A,E]/ [A,E]/[A,E]/!>![A,E] | B,2 C2 D2 _E2 | %40
 F4 E4 |!mp! (6:4:6D/F/A/A/F/D/ (6:4:6D/F/A/A/F/D/ (6:4:6D/F/A/A/F/D/ (6:4:6D/F/A/A/F/D/ | %42
 (6:4:6C/E/A/A/E/C/ (6:4:6C/E/A/A/E/C/ (6:4:6C/E/A/A/E/C/ (6:4:6C/E/A/A/E/C/ | %43
 (6:4:6D/F/A/A/F/D/ (6:4:6D/F/A/A/F/D/ (6:4:6D/F/A/A/F/D/ (6:4:6D/F/A/A/F/D/ | %44
 (6:4:6A,/E/c/c/E/A,/ (6:4:6A,/E/c/c/E/A,/ (6:4:6A,/E/c/c/E/A,/ (6:4:6A,/E/c/c/E/A,/ | %45
!<(! (6:4:6B,/F/d/d/F/B,/ (6:4:6B,/F/d/d/F/B,/ (6:4:6B,/F/d/d/F/B,/ (6:4:6B,/F/d/d/F/B,/ | %46
 (6:4:6G,/D/B/B/D/G,/ (6:4:6G,/D/B/B/D/G,/ (6:4:6G,/D/B/B/D/G,/ (6:4:6G,/D/B/B/D/G,/ | %47
 (6:4:6B,/F/d/d/F/B,/ (6:4:6B,/F/d/d/F/B,/ (6:4:6B,/F/d/d/F/B,/ (6:4:6B,/F/d/d/F/B,/!<)! | %48
 C/4G/4e/4c'/4c'/4e/4G/4C/4 C/4G/4e/4c'/4c'/4e/4G/4C/4 C3 A | ef d4 f2 | fe A4 A2 | ef d4 f2 | %52
 fe e4 A2 | ef d4 a2 | a2 g2 d2 g2 | f3 d agef | d3 d ag"^ral"ef | !fermata!d8 |] %58
V:2
 z8 | z8 | z8 | z8 | z8 | z8 | z8 | z8 | z8 | z8 | [F,A,D]8 | [F,A,D]8 | [F,A,D]8 | [E,A,C]8 | %14
 [A,CF]8 | [A,CF]8 | [B,DG]8 | A,4 G,4 | [F,A,]2 [F,A,D]2 [A,DF]2 [DFA]2 | %19
 [E,A,]2 [E,A,C]2 [A,CE]2 [CEA]2 | [F,A,]2 [A,D]2 [A,DF]2 [DFA]2 | %21
"^V. I" [F,A,]2 [A,C]2 [A,CE]2 [CEA]2 | [F,B,]2 [B,D]2 [B,DF]2 [B,D]2 | %23
 G,2 [G,B,]2 [G,B,D]2 [B,DG]2 |[M:6/4] [F,F]2 [E,E]2 [D,D]2 z2 z4 |[M:4/4] [F,A,DF]8 | [E,A,CE]8 | %27
 [F,A,DF]8 | [E,A,CE]8 | [F,B,DF]8 | [G,B,DG]8 | [B,DFB]4 [A,EA]4 | [A,DA]8 | %33
!mf! [F,F]3 A, [E,E]3 A, | [F,F]2 [G,G]2 [E,E]3 A, | [G,G]2 [F,F]2 [E,E]2 [D,D]2 | [E,E]7 C | %37
 [A,A]3 C [G,G]3 C | [A,A]2 [B,B]2 [G,G]3 C | B2 A2 G2 F2 | [F,A,DF]4 [E,A,^CE]4 | %41
"^montée arpèges" [D,F,A,D](3D,/F,/A,/ D/F,/A,/D/ [F,A,DF]2 [A,DFA]2 | %42
 [E,A,CE](3E,/A,/C/ E/A,/C/E/ [A,CEA]2 [CEAc]2 | %43
 [D,F,A,D](3D,/F,/A,/ D/F,/A,/D/ [F,A,DF]2 [A,DFA]2 | %44
 [E,A,CE](3E,/A,/C/ E/A,/C/E/ [A,CEA]2 [CEAc]2 | [F,B,DF](3F,/B,/D/ F/B,/D/F/ [B,DFB]2 [DFBd]2 | %46
 [G,B,DG](3G,/B,/D/ G/B,/D/G/ [B,DGB]2 [DGBd]2 | [B,DFB](3B,/D/F/ B/D/F/B/ [DFBd]2 [FBdf]2 | %48
 [CEGc]C/E/ [EGce]/E/G/c/ [Gceg]/G/c/e/ [cegc']2 | [dfad']2 [Adfa]2 [FAdf]2 [Adfa]2 | %50
 [ceac']2 [Acea]2 [EAce]2 [Acea]2 | [dfad']2 [Adfa]2 [FAdf][Dd][Ff][Aa] | %52
 [ceac']2 [Acea]2 [FAcf][Ee][Dd][Cc] | %53
 [B,DFB]F,/B,/ [F,B,DF]/B,/D/F/ [B,DFB]/D/F/B/ [DFBd]/F/B/d/ | %54
 [GBg]/d/B/G/ [DGd]/B/G/D/ [B,DB]/G/D/B,/ [G,B,DG]/G,/B,/D/ | %55
 [B,DFB][B,DFB]/[B,DFB]/ [B,DFB][B,DFB]/[B,DFB]/ [B,DFB][B,DFB]/[B,DFB]/ [B,DFB]/[B,DFB]/[B,DFB] | %56
 [CEGc][CEGc]/[CEGc]/ [CEGc][CEGc]/[CEGc]/ [CEGc][CEGc]/[CEGc]/ [CEGc]/[CEGc]/[CEGc] | [DAd]8 |] %58
V:3
 D,,2 A,,2 E,2 F,2 | D,,2 A,,2 E,2 F,2 | D,,2 A,,2 E,2 F,2 | D,,2 A,,2 E,2 F,2 | %4
 D,,2 A,,2 E,2 F,2 | A,,2 C,2 E,2 C,2 | F,,2 C,2 G,2 A,2 | F,,2 C,2 G,2 A,2 | G,,2 D,2 B,,2 D,2 | %9
 A,,4 G,,4 | D,,2 A,,2 E,2 F,2 | D,,2 A,,2 E,2 F,2 | D,,2 A,,2 E,2 F,2 | A,,2 C,2 E,2 C,2 | %14
 F,,2 C,2 G,2 A,2 | F,,2 C,2 G,2 A,2 | G,,2 D,2 B,,2 D,2 | A,,4 G,,2 A,,2 | %18
 [D,,,D,,]3 D,, [D,,D,]4 | [A,,,A,,]3 A,, [A,,A,]4 | [D,,,D,,]3 D,, [D,,D,]4 | %21
 [A,,,A,,]3 A,, [A,,A,]4 | [B,,,B,,]3 B,, [B,,,B,,]4 | [G,,,G,,]3 G,, [G,,,G,,]4 | %24
[M:6/4] [F,,,F,,]2 [E,,,E,,]2 [D,,,D,,]2 z2 !///-!D,,,2 D,,2 | %25
[M:4/4] [D,,,D,,]D,,,/D,,/ D,,,[D,,,D,,] [D,,,D,,]4 | [A,,,A,,]A,,,/A,,/ A,,,[A,,,A,,] [A,,,A,,]4 | %27
 [D,,,D,,]D,,,/D,,/ D,,,[D,,,D,,] [D,,,D,,]4 | [A,,,A,,]A,,,/A,,/ A,,,[A,,,A,,] [A,,,A,,]4 | %29
 [B,,,B,,]B,,,/B,,/ B,,,[B,,,B,,] [B,,,B,,]4 | [G,,,G,,]G,,,/G,,/ G,,,[G,,,G,,] [G,,,G,,]4 | %31
 [B,,,B,,]B,,,/B,,/ B,,,[B,,,B,,] [A,,,A,,]A,,,/A,,/ A,,,[A,,,A,,] | %32
 [D,,,D,,]D,,,/D,,/ D,,,[D,,,D,,] [D,,,D,,]4 | %33
!mp! [D,,,D,,]D,,/D,/ D,,/D,/[D,,D,] [D,,D,]2 [D,,,D,,]2 | %34
 [D,,,D,,]D,,/D,/ D,,/D,/[D,,D,] [D,,D,]2 [D,,,D,,]2 | %35
 [D,,,D,,]D,,/D,/ D,,/D,/[D,,D,] [D,,D,]2 [D,,,D,,]2 | %36
 [D,,,D,,]D,,/D,/ D,,/D,/[D,,D,] [D,,D,]2 [D,,,D,,]2 | %37
 [A,,,A,,]A,,/[E,A,]/ A,,/[E,A,]/A,, [A,,,A,,]2 [A,,,A,,E,A,]2 | %38
 [A,,,A,,]A,,/[E,A,]/ A,,/[E,A,]/A,, [A,,,A,,]2 [A,,,A,,E,A,]2 | %39
 [B,,,B,,]2 [A,,,A,,]2 [G,,,G,,]2 [F,,,F,,]2 | [D,,,D,,]4 [A,,,A,,]4 | %41
 [D,,,D,,][D,,,D,,]/[D,,,D,,]/ [D,,,D,,]/[D,,,D,,]/[D,,,D,,] [D,,,D,,][D,,,D,,]/[D,,,D,,]/ [D,,,D,,]/[D,,,D,,]/[D,,,D,,] | %42
 [A,,,A,,][A,,,A,,]/[A,,,A,,]/ [A,,,A,,]/[A,,,A,,]/[A,,,A,,] [A,,,A,,][A,,,A,,]/[A,,,A,,]/ [A,,,A,,]/[A,,,A,,]/[A,,,A,,] | %43
 [D,,,D,,][D,,,D,,]/[D,,,D,,]/ [D,,,D,,]/[D,,,D,,]/[D,,,D,,] [D,,,D,,][D,,,D,,]/[D,,,D,,]/ [D,,,D,,]/[D,,,D,,]/[D,,,D,,] | %44
 [A,,,A,,][A,,,A,,]/[A,,,A,,]/ [A,,,A,,]/[A,,,A,,]/[A,,,A,,] [A,,,A,,][A,,,A,,]/[A,,,A,,]/ [A,,,A,,]/[A,,,A,,]/[A,,,A,,] | %45
 [B,,,B,,][B,,,B,,]/[B,,,B,,]/ [B,,,B,,]/[B,,,B,,]/[B,,,B,,] [B,,,B,,][B,,,B,,]/[B,,,B,,]/ [B,,,B,,]/[B,,,B,,]/[B,,,B,,] | %46
 [G,,,G,,][G,,,G,,]/[G,,,G,,]/ [G,,,G,,]/[G,,,G,,]/[G,,,G,,] [G,,,G,,][G,,,G,,]/[G,,,G,,]/ [G,,,G,,]/[G,,,G,,]/[G,,,G,,] | %47
 [B,,,B,,][B,,,B,,]/[B,,,B,,]/ [B,,,B,,]/[B,,,B,,]/[B,,,B,,] [B,,,B,,][B,,,B,,]/[B,,,B,,]/ [B,,,B,,]/[B,,,B,,]/[B,,,B,,] | %48
 [C,,,C,,][C,,,C,,]/[C,,,C,,]/ [C,,,C,,]/[C,,,C,,]/[C,,,C,,] !///-!C,,,2 C,,2 | %49
 [D,,,D,,][D,,,D,,]/[D,,,D,,]/ [D,,,D,,][D,,,D,,]/[D,,,D,,]/ [D,,,D,,][D,,,D,,]/[D,,,D,,]/ [D,,,D,,]/[D,,,D,,]/[D,,,D,,] | %50
 [A,,,A,,][A,,,A,,]/[A,,,A,,]/ [A,,,A,,][A,,,A,,]/[A,,,A,,]/ [A,,,A,,][A,,,A,,]/[A,,,A,,]/ [A,,,A,,]/[A,,,A,,]/[A,,,A,,] | %51
 [D,,,D,,][D,,,D,,]/[D,,,D,,]/ [D,,,D,,][D,,,D,,]/[D,,,D,,]/ [D,,,D,,][D,,,D,,]/[D,,,D,,]/ [D,,,D,,]/[D,,,D,,]/[D,,,D,,] | %52
 [A,,,A,,][A,,,A,,]/[A,,,A,,]/ [A,,,A,,][A,,,A,,]/[A,,,A,,]/ [A,,,A,,][A,,,A,,]/[A,,,A,,]/ [A,,,A,,]/[A,,,A,,]/[A,,,A,,] | %53
 [B,,,B,,][B,,,B,,]/[B,,,B,,]/ [B,,,B,,][B,,,B,,]/[B,,,B,,]/ [B,,,B,,][B,,,B,,]/[B,,,B,,]/ [B,,,B,,]/[B,,,B,,]/[B,,,B,,] | %54
 [G,,,G,,][G,,,G,,]/[G,,,G,,]/ [G,,,G,,][G,,,G,,]/[G,,,G,,]/ [G,,,G,,][G,,,G,,]/[G,,,G,,]/ [G,,,G,,]/[G,,,G,,]/[G,,,G,,] | %55
 [B,,,B,,][B,,,B,,]/[B,,,B,,]/ [B,,,B,,][B,,,B,,]/[B,,,B,,]/ [B,,,B,,][B,,,B,,]/[B,,,B,,]/ [B,,,B,,]/[B,,,B,,]/[B,,,B,,] | %56
 [C,,C,][C,,C,]/[C,,C,]/ [C,,C,][C,,C,]/[C,,C,]/ [C,,C,][C,,C,]/[C,,C,]/ [C,,C,]/[C,,C,]/[C,,C,] | %57
 [D,,D,]8 |] %58

